X:147
T:Abel Dregger
M:C|
L:1/8
B:Thompson's Compleat Collection of 200 Favourite Country Dances, vol. 1 (London, 1757)
Z:Transcribed and edited by Flynn Titford-Mock, 2007
Z:abc's:AK/Fiddler's Companion
K:G
G2 G(B/c/) dBGB|D2 D(A/B/) cAFA|G2 G(B/c/) dBGB|AdAF G2 G,2:|
|:d(e/f/) ge dBGB|D(A/B/) cA dBcA|d(e/f/) ge dBGB|AdAF G2 G,2:|
|:g2 "tr"f2 gdBG|cBAG FAFD|g2 "tr"f2 gdBG|AdAF G2 G,2:|

